client/src/assets/images/icon-travel.svg

<svg fill="none" height="65" viewBox="0 0 71 65" width="71" xmlns="http://www.w3.org/2000/svg"><path d="m40.3161 0c-14.7869 0-27.1162 11.4386-29.6897 26.4798-8.30999 7.8044-11.78567 15.0737-9.52475 19.9719 1.57828 3.4185 5.69711 5.1384 11.55785 5.1384 1.0487 0 2.1688-.0713 3.3252-.1814 5.5006 8.0043 14.3567 13.2113 24.3322 13.2113 16.6472 0 30.1913-14.4945 30.1913-32.31 0-17.8154-13.5441-32.31-30.1921-32.31zm21.0588 11.7088c-2.1244.9682-4.5621 1.7797-7.2441 2.402-1.7856-5.09526-4.3023-9.10178-7.2507-11.52663 5.6666 1.43291 10.6877 4.67192 14.4948 9.12463zm-20.2956-9.90446c4.6098.48849 8.7665 5.37517 11.3909 12.66646-3.5357.6989-7.4053 1.0879-11.3909 1.1328zm-7.2622.76398c-2.9617 2.4363-5.4899 6.46923-7.2853 11.55398-2.6927-.6232-5.1387-1.4417-7.2729-2.4143 3.8203-4.46863 8.8652-7.71469 14.5582-9.13968zm5.6173-.75078v13.78336c-3.9658-.051-7.8083-.4409-11.3177-1.1362 2.5734-7.23326 6.6643-12.09793 11.3177-12.64716zm-27.6286 28.95306c.3117-6.6734 2.636-12.7853 6.3304-17.664 2.2799 1.0887 4.9257 1.9971 7.8437 2.6845-1.3644 4.4237-2.2 9.526-2.3332 14.9804h-11.8409zm13.8262 16.9221c-3.1795.9074-6.1691 1.5236-8.8767 1.8422-3.1055-4.8506-4.9379-10.7028-4.9807-17.0031h11.8548c.0197 5.4826.7427 10.6439 2.0026 15.1609zm-23.0557-2.0209c-1.726323-3.7389 1.21147-9.9371 7.6916-16.4626-.0913 1.021-.1423 2.0552-.1423 3.1008 0 6.4023 1.7567 12.3708 4.7702 17.3974-6.34111.4427-10.87199-.9004-12.3195-4.0356zm15.3173 5.5099c2.548-.3574 5.3065-.9577 8.2443-1.8079 1.7945 5.5952 4.4478 10.0471 7.62 12.663-6.3773-1.6116-11.9322-5.5152-15.8643-10.8551zm23.1857 11.6578v-7.1311c-.2837.3925-.6431.7261-1.0684.9655l-.5765.3248v5.7994c-4.859-.5941-9.1391-6.0459-11.6895-13.911.8883-.2782 1.7897-.5774 2.7051-.8987l.3627.7394c.1447.2939.4285.47.7278.47.0667 0 .1341-.0088.2015-.0264l2.0027-.5413 2.9304 5.9464c.148.2992.4326.4691.7287.4691.1291 0 .2599-.0326.3824-.1012l1.0758-.6056c.2689-.1514.4375-.4497.4392-.7754l.0255-6.4551c.6785-.2104 1.2912-.4727 1.9344-.8344l2.4525-1.381 2.7881 14.0668c.0535.2702.2229.4973.4557.6143.111.0555.2303.0837.3495.0837.1316 0 .2632-.0335.3833-.1013l3.3416-1.8826c.2393-.1347.4005-.3855.4334-.6742l1.9805-17.5875 2.9098-1.6389c.9943-.5598 2.1071-1.7304 2.9756-3.1307.6983-1.1249 1.4237-2.681.9179-3.7082-.5256-1.0676-2.1211-1.2921-3.3679-1.2921-1.251 0-3.0217.2438-4.2406.9313l-2.7717 1.5605-14.6684-8.2137c-.2393-.1338-.5255-.1338-.7648.0009l-3.3417 1.8817c-.2278.1286-.3865.3636-.4285.6355-.0427.2729.0379.5501.2155.7499l9.2559 10.4274-2.4526 1.3809c-.653.368-1.209.7667-1.7649 1.2569l-4.9265-3.5893c-.2509-.1831-.5766-.2024-.8447-.0528l-1.0766.6055c-.4021.2262-.5576.7579-.3462 1.1891l2.8884 5.8866-1.5519 1.4593c-.1727.1629-.2575.3899-.2673.6241-.8611.2992-1.7115.5791-2.5504.8396-1.2321-4.3788-1.9493-9.3949-1.969-14.6829h6.9456l-1.5627-1.7603h-5.3656c.1316-5.3541.9474-10.3464 2.2699-14.631 3.6822.749 7.7146 1.1697 11.8738 1.2225v5.9491l1.6449.9215v-6.8688c4.1813-.0467 8.245-.4674 11.9559-1.2199 1.0289 3.2918 1.7551 7.0052 2.0981 10.9774.5395-.0713 1.0906-.1127 1.6432-.1171-.3437-4.0628-1.0683-7.8484-2.0997-11.2221 2.9082-.6865 5.5516-1.5887 7.8215-2.6713 3.6937 4.877 6.0171 10.988 6.328 17.6597h-6.045c.1134.5545.1324 1.1398.0403 1.7603h6.0351c-.0502 7.4321-2.5932 14.2393-6.7762 19.515-2.1277-.9734-4.5892-1.8113-7.2968-2.4583l-.1973 1.7542c2.3258.5651 4.456 1.271 6.3287 2.0842-5.0358 5.6217-12.0514 9.1916-19.8375 9.4117zm.57-26.0767-8.8274-9.9441 1.9977-1.1249 13.2793 7.4365zm11.7577-4.6332c.7731-.4348 2.1705-.7279 3.4749-.7279 1.1185 0 1.7263.2174 1.8957.3485.0214.7948-1.6021 3.5726-3.1878 4.4642l-3.2873 1.8519c-.0017.0009-.0033.0009-.005.0018l-8.3873 4.7238c-.0008 0-.0008.0009-.0017.0009l-3.4131 1.9232c-.6506.367-1.2353.6055-1.9534.8009l-6.3262 1.7111-.2912-.8872 4.8015-4.5171c.5568-.5237 1.0725-.903 1.7238-1.2692zm-1.7304 8.2771-1.793 15.9231-1.9985 1.1248-2.6582-13.4164zm-13.9965 7.1584-.0205 5.2317-2.2733-4.6112zm-4.7965-4.4713-2.233-4.5504 3.984 2.9027z" fill="#fff"/></svg>

<svg width="71" height="65" viewBox="0 0 71 65" fill="none" xmlns="http://www.w3.org/2000/svg">
<path d="M40.3161 0C25.5292 0 13.1999 11.4386 10.6264 26.4798C2.31641 34.2842 -1.15927 41.5535 1.10165 46.4517C2.67993 49.8702 6.79876 51.5901 12.6595 51.5901C13.7082 51.5901 14.8283 51.5188 15.9847 51.4087C21.4853 59.413 30.3414 64.62 40.3169 64.62C56.9641 64.62 70.5082 50.1255 70.5082 32.31C70.5082 14.4946 56.9641 0 40.3161 0ZM61.3749 11.7088C59.2505 12.677 56.8128 13.4885 54.1308 14.1108C52.3452 9.01554 49.8285 5.00902 46.8801 2.58417C52.5467 4.01708 57.5678 7.25609 61.3749 11.7088ZM41.0793 1.80434C45.6891 2.29283 49.8458 7.17951 52.4702 14.4708C48.9345 15.1697 45.0649 15.5587 41.0793 15.6036V1.80434ZM33.8171 2.56832C30.8554 5.00462 28.3272 9.03755 26.5318 14.1223C23.8391 13.4991 21.3931 12.6806 19.2589 11.708C23.0792 7.23937 28.1241 3.99331 33.8171 2.56832ZM39.4344 1.81754V15.6009C35.4686 15.5499 31.6261 15.16 28.1167 14.4647C30.6901 7.23144 34.781 2.36677 39.4344 1.81754ZM11.8058 30.7706C12.1175 24.0972 14.4418 17.9853 18.1362 13.1066C20.4161 14.1953 23.0619 15.1037 25.9799 15.7911C24.6155 20.2148 23.7799 25.3171 23.6467 30.7715H11.8058V30.7706ZM25.632 47.6927C22.4525 48.6001 19.4629 49.2163 16.7553 49.5349C13.6498 44.6843 11.8174 38.8321 11.7746 32.5318H23.6294C23.6491 38.0144 24.3721 43.1757 25.632 47.6927ZM2.5763 45.6718C0.849977 41.9329 3.78777 35.7347 10.2679 29.2092C10.1766 30.2302 10.1256 31.2644 10.1256 32.31C10.1256 38.7123 11.8823 44.6808 14.8958 49.7074C8.55469 50.1501 4.02381 48.807 2.5763 45.6718ZM17.8936 51.1817C20.4416 50.8243 23.2001 50.224 26.1379 49.3738C27.9324 54.969 30.5857 59.4209 33.7579 62.0368C27.3806 60.4252 21.8257 56.5216 17.8936 51.1817ZM41.0793 62.8395V55.7084C40.7956 56.1009 40.4362 56.4345 40.0109 56.6739L39.4344 56.9987V62.7981C34.5754 62.204 30.2953 56.7522 27.7449 48.8871C28.6332 48.6089 29.5346 48.3097 30.45 47.9884L30.8127 48.7278C30.9574 49.0217 31.2412 49.1978 31.5405 49.1978C31.6072 49.1978 31.6746 49.189 31.742 49.1714L33.7447 48.6301L36.6751 54.5765C36.8231 54.8757 37.1077 55.0456 37.4038 55.0456C37.5329 55.0456 37.6637 55.013 37.7862 54.9444L38.862 54.3388C39.1309 54.1874 39.2995 53.8891 39.3012 53.5634L39.3267 47.1083C40.0052 46.8979 40.6179 46.6356 41.2611 46.2739L43.7136 44.8929L46.5017 58.9597C46.5552 59.2299 46.7246 59.457 46.9574 59.574C47.0684 59.6295 47.1877 59.6577 47.3069 59.6577C47.4385 59.6577 47.5701 59.6242 47.6902 59.5564L51.0318 57.6738C51.2711 57.5391 51.4323 57.2883 51.4652 56.9996L53.4457 39.4121L56.3555 37.7732C57.3498 37.2134 58.4626 36.0428 59.3311 34.6425C60.0294 33.5176 60.7548 31.9615 60.249 30.9343C59.7234 29.8667 58.1279 29.6422 56.8811 29.6422C55.6301 29.6422 53.8594 29.886 52.6405 30.5735L49.8688 32.134L35.2004 23.9203C34.9611 23.7865 34.6749 23.7865 34.4356 23.9212L31.0939 25.8029C30.8661 25.9315 30.7074 26.1665 30.6654 26.4384C30.6227 26.7113 30.7033 26.9885 30.8809 27.1883L40.1368 37.6157L37.6842 38.9966C37.0312 39.3646 36.4752 39.7633 35.9193 40.2535L30.9928 36.6642C30.7419 36.4811 30.4162 36.4618 30.1481 36.6114L29.0715 37.2169C28.6694 37.4431 28.5139 37.9748 28.7253 38.406L31.6137 44.2926L30.0618 45.7519C29.8891 45.9148 29.8043 46.1418 29.7945 46.376C28.9334 46.6752 28.083 46.9551 27.2441 47.2156C26.012 42.8368 25.2948 37.8207 25.2751 32.5327H32.2207L30.658 30.7724H25.2924C25.424 25.4183 26.2398 20.426 27.5623 16.1414C31.2445 16.8904 35.2769 17.3111 39.4361 17.3639V23.313L41.081 24.2345V17.3657C45.2623 17.319 49.326 16.8983 53.0369 16.1458C54.0658 19.4376 54.792 23.151 55.135 27.1232C55.6745 27.0519 56.2256 27.0105 56.7782 27.0061C56.4345 22.9433 55.7099 19.1577 54.6785 15.784C57.5867 15.0975 60.2301 14.1953 62.5 13.1127C66.1937 17.9897 68.5171 24.1007 68.828 30.7724H62.783C62.8964 31.3269 62.9154 31.9122 62.8233 32.5327H68.8584C68.8082 39.9648 66.2652 46.772 62.0822 52.0477C59.9545 51.0743 57.493 50.2364 54.7854 49.5894L54.5881 51.3436C56.9139 51.9087 59.0441 52.6146 60.9168 53.4278C55.881 59.0495 48.8654 62.6194 41.0793 62.8395ZM41.6493 36.7628L32.8219 26.8187L34.8196 25.6938L48.0989 33.1303L41.6493 36.7628ZM53.407 32.1296C54.1801 31.6948 55.5775 31.4017 56.8819 31.4017C58.0004 31.4017 58.6082 31.6191 58.7776 31.7502C58.799 32.545 57.1755 35.3228 55.5898 36.2144L52.3025 38.0663C52.3008 38.0672 52.2992 38.0672 52.2975 38.0681L43.9102 42.7919C43.9094 42.7919 43.9094 42.7928 43.9085 42.7928L40.4954 44.716C39.8448 45.083 39.2601 45.3215 38.542 45.5169L32.2158 47.228L31.9246 46.3408L36.7261 41.8237C37.2829 41.3 37.7986 40.9207 38.4499 40.5545L53.407 32.1296ZM51.6766 40.4067L49.8836 56.3298L47.8851 57.4546L45.2269 44.0382L51.6766 40.4067ZM37.6801 47.5651L37.6596 52.7968L35.3863 48.1856L37.6801 47.5651ZM32.8836 43.0938L30.6506 38.5434L34.6346 41.4461L32.8836 43.0938Z" fill="white"/>
</svg>
